build/svg/cmd/sc_dbnewquery.svg

<svg xmlns="http://www.w3.org/2000/svg" viewBox="0 0 16 16"><path d="M8 2.5c-3.038 0-5.5.82-5.5 1.833v7.334C2.5 12.679 4.962 13.5 8 13.5s5.5-.82 5.5-1.833V4.333C13.5 3.321 11.038 2.5 8 2.5z" fill="#f2cbf8"/><path d="M8 2a6 2 0 00-6 2v8a6 2 0 006 2 6 2 0 006-2V4a6 2 0 00-6-2zm0 1a5 1 0 015 1 5 1 0 01-5 1 5 1 0 01-5-1 5 1 0 015-1zM3 5.102A6 2 0 008 6a6 2 0 005-.896V8a5 1 0 01-5 1 5 1 0 01-5-1zm0 4A6 2 0 008 10a6 2 0 005-.896V12a5 1 0 01-5 1 5 1 0 01-5-1z" fill="#8e03a3"/><circle cy="12.5" cx="12.5" r="3.5" fill="#46a926"/><path overflow="visible" font-weight="400" style="line-height:normal;text-indent:0;text-align:start;text-decoration-line:none;text-decoration-style:solid;text-decoration-color:#000;text-transform:none;white-space:normal;isolation:auto;mix-blend-mode:normal;marker:none" d="M12 10v2h-2v1h2v2h1v-2h2v-1h-2v-2z" color="#000" font-family="sans-serif" fill="#fff"/></svg>

<?xml version="1.0" encoding="UTF-8" standalone="no"?>
<svg
   xmlns:dc="http://purl.org/dc/elements/1.1/"
   xmlns:cc="http://creativecommons.org/ns#"
   xmlns:rdf="http://www.w3.org/1999/02/22-rdf-syntax-ns#"
   xmlns:svg="http://www.w3.org/2000/svg"
   xmlns="http://www.w3.org/2000/svg"
   xmlns:sodipodi="http://sodipodi.sourceforge.net/DTD/sodipodi-0.dtd"
   xmlns:inkscape="http://www.inkscape.org/namespaces/inkscape"
   viewBox="0 0 16 16"
   version="1.1"
   id="svg6"
   sodipodi:docname="sc_dbnewquery.svg"
   inkscape:export-filename="/home/jupiter007/Libreoffice yaru theme fullcolor/build/cmd/sc_dbnewquery.png"
   inkscape:export-xdpi="95"
   inkscape:export-ydpi="95"
   inkscape:version="0.92.5 (2060ec1f9f, 2020-04-08)">
  <metadata
     id="metadata12">
    <rdf:RDF>
      <cc:Work
         rdf:about="">
        <dc:format>image/svg+xml</dc:format>
        <dc:type
           rdf:resource="http://purl.org/dc/dcmitype/StillImage" />
      </cc:Work>
    </rdf:RDF>
  </metadata>
  <defs
     id="defs10" />
  <sodipodi:namedview
     pagecolor="#ffffff"
     bordercolor="#666666"
     borderopacity="1"
     objecttolerance="10"
     gridtolerance="10"
     guidetolerance="10"
     inkscape:pageopacity="0"
     inkscape:pageshadow="2"
     inkscape:window-width="1920"
     inkscape:window-height="1011"
     id="namedview8"
     showgrid="false"
     inkscape:zoom="14.75"
     inkscape:cx="0.44067797"
     inkscape:cy="8"
     inkscape:window-x="1920"
     inkscape:window-y="32"
     inkscape:window-maximized="1"
     inkscape:current-layer="svg6" />
  <path
     style="fill:#f2cbf8;fill-opacity:1;stroke-width:0.91666681"
     id="path817"
     d="M 8,2.5 C 4.962434,2.5 2.5,3.3208113 2.5,4.3333333 V 11.666666 C 2.5,12.679188 4.962434,13.5 8,13.5 c 3.037565,0 5.5,-0.820812 5.5,-1.833334 V 4.3333333 C 13.5,3.3208113 11.037565,2.5 8,2.5 Z"
     inkscape:connector-curvature="0"
     sodipodi:nodetypes="sssssss" />
  <path
     inkscape:connector-curvature="0"
     d="M 8,2 A 6,2 0 0 0 2,4 v 8 a 6,2 0 0 0 6,2 6,2 0 0 0 6,-2 V 4 A 6,2 0 0 0 8,2 Z M 8,3 A 5,1 0 0 1 13,4 5,1 0 0 1 8,5 5,1 0 0 1 3,4 5,1 0 0 1 8,3 Z M 3,5.1015625 A 6,2 0 0 0 8,6 6,2 0 0 0 13,5.1035156 V 8 A 5,1 0 0 1 8,9 5,1 0 0 1 3,8 Z M 3,9.101563 A 6,2 0 0 0 8,10 6,2 0 0 0 13,9.103516 V 12 A 5,1 0 0 1 8,13 5,1 0 0 1 3,12 Z"
     id="path2"
     style="fill:#8e03a3;fill-opacity:1" />
  <circle
     style="opacity:1;vector-effect:none;fill:#46a926;fill-opacity:1;stroke:none;stroke-width:3.49999976;stroke-linecap:butt;stroke-linejoin:round;stroke-miterlimit:4;stroke-dasharray:none;stroke-dashoffset:0;stroke-opacity:1"
     id="path2644"
     cy="12.5"
     cx="12.5"
     r="3.5" />
  <path
     inkscape:connector-curvature="0"
     id="path1063"
     overflow="visible"
     font-weight="400"
     style="color:#000000;font-weight:400;line-height:normal;font-family:sans-serif;text-indent:0;text-align:start;text-decoration:none;text-decoration-line:none;text-decoration-style:solid;text-decoration-color:#000000;text-transform:none;white-space:normal;overflow:visible;isolation:auto;mix-blend-mode:normal;fill:#ffffff;fill-opacity:1;marker:none"
     d="m 12,10.000001 v 2 h -2 v 1 h 2 v 2 h 1 v -2 h 2 v -1 h -2 v -2 z" />
</svg>
